X:154
T:Russells Triumph. Thursday in the Morning.
O:No 154 William Clarke of Feltwell
M:4/4
L:1/8
K:G
G>AB>cd3d|e2d>cB3c|d2G>GG2A>B|A>GA>BA3G|G>AB>cd3d|e2f>gd3d|e>dc>B A>GF>G|"tr"E3DD2z2|A>GF>GA3B|A>GF>GA3B|A>GF>GA3B|A>GF>GA3B|e>^de>fg2f>e|e2B>cd2A>B|c2G>A B>dc>B|"tr"A3GG2B>c|d2A>Bc2G>A|B>dc>B"tr"A3G|G8||

